Numix-Light/24/status/renamed-simplescreenrecorder.svg

<?xml version="1.0" encoding="UTF-8" standalone="no"?>
<svg
   xmlns:dc="http://purl.org/dc/elements/1.1/"
   xmlns:cc="http://creativecommons.org/ns#"
   xmlns:rdf="http://www.w3.org/1999/02/22-rdf-syntax-ns#"
   xmlns:svg="http://www.w3.org/2000/svg"
   xmlns="http://www.w3.org/2000/svg"
   xmlns:sodipodi="http://sodipodi.sourceforge.net/DTD/sodipodi-0.dtd"
   xmlns:inkscape="http://www.inkscape.org/namespaces/inkscape"
   width="24"
   height="24"
   viewBox="0 0 24 24"
   id="svg3109"
   version="1.1"
   inkscape:version="0.91 r"
   sodipodi:docname="renamed-simplescreenrecorder.svg">
  <metadata
     id="metadata3139">
    <rdf:RDF>
      <cc:Work
         rdf:about="">
        <dc:format>image/svg+xml</dc:format>
        <dc:type
           rdf:resource="http://purl.org/dc/dcmitype/StillImage" />
      </cc:Work>
    </rdf:RDF>
  </metadata>
  <sodipodi:namedview
     pagecolor="#ffffff"
     bordercolor="#666666"
     borderopacity="1"
     objecttolerance="10"
     gridtolerance="10"
     guidetolerance="10"
     inkscape:pageopacity="0"
     inkscape:pageshadow="2"
     inkscape:window-width="1366"
     inkscape:window-height="747"
     id="namedview3137"
     showgrid="false"
     inkscape:zoom="9.8333334"
     inkscape:cx="0.48676722"
     inkscape:cy="2.0947722"
     inkscape:window-x="0"
     inkscape:window-y="21"
     inkscape:window-maximized="1"
     inkscape:current-layer="svg3109" />
  <defs
     id="defs3111" />
  <path
     style="fill:#353535;fill-opacity:1"
     inkscape:connector-curvature="0"
     id="path3133"
     d="m 19.332617,6.4601606 c 0.737559,0 1.364125,0.2399286 1.886861,0.7233666 C 21.738633,7.6633836 22,8.2435094 22,8.9239029 l 0,8.6159361 c 0,0.676813 -0.261367,1.256938 -0.780522,1.740376 C 20.696742,19.760072 20.070176,20 19.332617,20 L 4.6673826,20 C 3.9298239,20 3.3032582,19.760072 2.7805223,19.280215 2.2613675,18.796777 2,18.216652 2,17.539839 L 2,8.9239029 C 2,8.2435094 2.2613675,7.6633836 2.7805223,7.1835272 3.3032582,6.7000892 3.9298239,6.4601606 4.6673826,6.4601606 l 2.3344075,0 0.5298962,-1.3070724 C 7.6641601,4.8379583 7.9040457,4.5693816 8.2549225,4.3401962 8.6058001,4.1145926 8.9638381,4 9.3326174,4 l 5.3347656,0 c 0.368779,0 0.726817,0.1145926 1.077695,0.3401962 0.350876,0.2291854 0.590762,0.4977621 0.723236,0.812892 L 16.99821,6.4601606 Z M 12,17.539839 c 1.285357,0 2.384532,-0.42256 3.297529,-1.264101 0.912997,-0.845119 1.367706,-1.858549 1.367706,-3.043867 0,-1.185318 -0.454709,-2.202328 -1.367706,-3.043867 C 14.384532,9.342882 13.285357,8.9239029 12,8.9239029 c -1.285357,0 -2.3845324,0.4189791 -3.2975294,1.2641011 -0.912997,0.841539 -1.3677055,1.858549 -1.3677055,3.043867 0,1.185318 0.4547085,2.198748 1.3677055,3.043867 C 9.6154676,17.117279 10.714643,17.539839 12,17.539839 Z" />
  <path
     style="fill:#353535;fill-opacity:1"
     inkscape:connector-curvature="0"
     id="path3135"
     d="m 15.075546,13.236663 c 0.0036,1.60759 -1.374865,2.910849 -3.075546,2.910849 -1.700681,0 -3.0755463,-1.303259 -3.0755463,-2.910849 0,-1.60759 1.3748663,-2.910848 3.0755463,-2.910848 1.700681,0 3.079126,1.303258 3.075546,2.910848 z" />
</svg>

<svg xmlns="http://www.w3.org/2000/svg" viewBox="0 0 24 24">
 <path d="m 19.333 6.46 c 0.738 0 1.364 0.24 1.887 0.723 c 0.519 0.48 0.781 1.06 0.781 1.74 l 0 8.616 c 0 0.677 -0.261 1.257 -0.781 1.74 c -0.523 0.48 -1.149 0.72 -1.887 0.72 l -14.665 0 c -0.738 0 -1.364 -0.24 -1.887 -0.72 -0.519 -0.483 -0.781 -1.064 -0.781 -1.74 l 0 -8.616 c 0 -0.68 0.261 -1.261 0.781 -1.74 0.523 -0.483 1.149 -0.723 1.887 -0.723 l 2.334 0 0.53 -1.307 c 0.132 -0.315 0.372 -0.584 0.723 -0.813 0.351 -0.226 0.709 -0.34 1.078 -0.34 l 5.335 0 c 0.369 0 0.727 0.115 1.078 0.34 0.351 0.229 0.591 0.498 0.723 0.813 l 0.53 1.307 m -4.998 11.08 c 1.285 0 2.385 -0.423 3.298 -1.264 0.913 -0.845 1.368 -1.859 1.368 -3.044 0 -1.185 -0.455 -2.202 -1.368 -3.044 c -0.913 -0.845 -2.01 -1.264 -3.298 -1.264 c -1.285 0 -2.385 0.419 -3.298 1.264 -0.913 0.842 -1.368 1.859 -1.368 3.044 0 1.185 0.455 2.199 1.368 3.044 c 0.913 0.842 2.01 1.264 3.298 1.264" style="fill:#353535;fill-opacity:1"/>
 <path d="m 15.08 13.237 c 0.004 1.608 -1.375 2.911 -3.076 2.911 -1.701 0 -3.076 -1.303 -3.076 -2.911 0 -1.608 1.375 -2.911 3.076 -2.911 1.701 0 3.079 1.303 3.076 2.911 z" style="fill:#353535;fill-opacity:1"/>
</svg>
